X: 1
T: Box the Fox
C: R-64
M: C|
Z: Transcribed to abc by Mary Lou Knack
R: reel
K: D
ag| "D"fgaf dfaf| "G"gabg "A"e2ed| cdec "(A7)"Acec| "D"dedB A2ag|
    "D"fgaf dfaf| "G"gabg "A"e2ed| cdec "(A7)"Acec| "D"d6:|
|:\
dB| "D"A2f2- f2fd| "G"Bdg2 g2ga| "D"fgfd "A"efec| "D"dedB A2dB|
    "D"A2f2- f2fd| "G"Bdg2 g2ga| "D"fgfd "A"efec| "D"d6:|
%%text 9/1/98.  As played by Bob Carlin
